static/logos/3.svg

<svg contentScriptType="text/ecmascript" contentStyleType="text/css" height="225" preserveAspectRatio="xMidYMid meet" viewBox="0 0 750 225" width="750" xmlns="http://www.w3.org/2000/svg" xmlns:xlink="http://www.w3.org/1999/xlink" zoomAndPan="magnify"><defs><clipPath id="a"><path d="m22.5 53.007812h120.289062v104.113282h-120.289062zm0 0"/></clipPath><g id="b"><path d="m33.632812-82.683594-32.699218 82.683594h21.371094l4.554687-12.027344h27.914063l4.554687 12.027344h22.539063l-33.984376-82.683594zm7.242188 32.933594 6.308594 17.75.464844 1.402344h-13.546876l.699219-1.867188zm0 0"/></g></defs><g fill="#fdfaf6"><use x="174.706956" xlink:actuate="onLoad" xlink:href="#b" xlink:show="embed" xlink:type="simple" xmlns:xlink="http://www.w3.org/1999/xlink" y="152.436239"/><path d="m37.605469-82.453125h-31.765625v82.453125h19.851562v-27.679688h3.273438l17.050781 27.679688h21.253906v-3.738281l-17.519531-25.925781c10.746094-5.136719 16-15.648438 16-25.574219 0-13.550781-9.457031-27.214844-28.144531-27.214844zm-.46875 36.671875h-11.445313v-17.515625h11.445313c6.074219 0 9.109375 4.554687 9.109375 8.875 0 4.203125-3.152344 8.640625-9.109375 8.640625zm0 0" transform="translate(254.107086 152.436239)" xlink:actuate="onLoad" xlink:show="embed" xlink:type="simple" xmlns:xlink="http://www.w3.org/1999/xlink"/><path d="m50.335938 0h24.757812v-1.050781l-31.648438-40.058594 28.960938-39.472656v-1.167969h-23.707031l-22.65625 31.765625v-31.765625h-19.96875v81.75h19.96875v-31.648438zm0 0" transform="translate(322.76475 152.436239)" xlink:actuate="onLoad" xlink:show="embed" xlink:type="simple" xmlns:xlink="http://www.w3.org/1999/xlink"/><path d="m5.839844-81.75v81.75h54.304687v-19.269531h-34.335937v-62.480469zm0 0" transform="translate(424.232948 152.436239)" xlink:actuate="onLoad" xlink:show="embed" xlink:type="simple" xmlns:xlink="http://www.w3.org/1999/xlink"/><use x="486.234974" xlink:actuate="onLoad" xlink:href="#b" xlink:show="embed" xlink:type="simple" xmlns:xlink="http://www.w3.org/1999/xlink" y="152.436239"/><path d="m43.796875-81.75h-37.839844v81.75h37.605469c17.167969 0 26.160156-13.195312 26.160156-26.394531 0-6.890625-3.503906-14.015625-12.148437-18.453125 5.375-3.734375 7.828125-9.457032 7.828125-15.0625 0-10.746094-8.644532-21.839844-21.605469-21.839844zm-3.039063 29.546875h-15.066406v-11.445313h15.300782c3.152343 0 4.90625 2.800782 4.90625 5.605469 0 2.917969-1.636719 5.839844-5.140626 5.839844zm2.804688 33.285156h-17.871094v-14.832031h17.871094c4.203125 0 6.304688 3.734375 6.304688 7.472656 0 3.738282-2.101563 7.359375-6.304688 7.359375zm0 0" transform="translate(565.635112 152.436239)" xlink:actuate="onLoad" xlink:show="embed" xlink:type="simple" xmlns:xlink="http://www.w3.org/1999/xlink"/><path d="m46.363281-55.941406h20.089844c0-18.800782-15.769531-26.976563-30.367187-26.976563-17.398438 0-32.113282 10.742188-31.179688 28.730469v-.117188c1.515625 18.800782 17.167969 21.722657 30.363281 23.003907 3.035157.351562 12.378907.585937 12.378907 6.425781 0 4.671875-5.253907 6.539062-11.792969 6.539062-4.554688 0-11.332031-1.519531-11.332031-9.574218h-20.203126c0 20.785156 18.101563 28.960937 31.417969 28.960937 15.53125 0 32.113281-9.808593 32.113281-26.859375 0-1.753906-.230468-3.855468-.582031-5.722656-3.503906-14.714844-18.101562-17.753906-29.664062-19.269531-2.6875-.234375-12.378907-.351563-12.378907-6.425781 0-4.4375 4.320313-7.121094 10.511719-7.121094 6.1875 0 10.625 2.917968 10.625 8.40625zm0 0" transform="translate(637.562229 152.436239)" xlink:actuate="onLoad" xlink:show="embed" xlink:type="simple" xmlns:xlink="http://www.w3.org/1999/xlink"/></g><path d="m22.835938 156.710938 65.992187-114.296876 65.992187 114.296876zm0 0" fill="#549fd7"/><path d="m31.21875 152.304688 41.480469-71.847657 41.484375 71.847657zm0 0" fill="#e62b4a"/><path d="m31.21875 152.304688 29.71875-51.476563 29.722656 51.476563zm0 0" fill="#b5e1f9"/><g clip-path="url(#a)"><path d="m82.644531 53.007812-60.074219 104.113282h120.148438zm0 10.019532 51.402344 89.085937h-102.804687zm0 0" fill="#243544"/></g></svg>

<?xml version="1.0" encoding="UTF-8"?><svg xmlns="http://www.w3.org/2000/svg" xmlns:xlink="http://www.w3.org/1999/xlink" contentScriptType="text/ecmascript" width="750" zoomAndPan="magnify" contentStyleType="text/css" viewBox="0 0 750 225" height="225" preserveAspectRatio="xMidYMid meet" version="1.0"><defs><g><g id="glyph-0-0"><path d="M 33.632812 -82.683594 L 0.933594 0 L 22.304688 0 L 26.859375 -12.027344 L 54.773438 -12.027344 L 59.328125 0 L 81.867188 0 L 47.882812 -82.683594 Z M 40.875 -49.75 L 47.183594 -32 L 47.648438 -30.597656 L 34.101562 -30.597656 L 34.800781 -32.464844 Z M 40.875 -49.75 "/></g><g id="glyph-0-1"><path d="M 37.605469 -82.453125 L 5.839844 -82.453125 L 5.839844 0 L 25.691406 0 L 25.691406 -27.679688 L 28.964844 -27.679688 L 46.015625 0 L 67.269531 0 L 67.269531 -3.738281 L 49.75 -29.664062 C 60.496094 -34.800781 65.75 -45.3125 65.75 -55.238281 C 65.75 -68.789062 56.292969 -82.453125 37.605469 -82.453125 Z M 37.136719 -45.78125 L 25.691406 -45.78125 L 25.691406 -63.296875 L 37.136719 -63.296875 C 43.210938 -63.296875 46.246094 -58.742188 46.246094 -54.421875 C 46.246094 -50.21875 43.09375 -45.78125 37.136719 -45.78125 Z M 37.136719 -45.78125 "/></g><g id="glyph-0-2"><path d="M 50.335938 0 L 75.09375 0 L 75.09375 -1.050781 L 43.445312 -41.109375 L 72.40625 -80.582031 L 72.40625 -81.75 L 48.699219 -81.75 L 26.042969 -49.984375 L 26.042969 -81.75 L 6.074219 -81.75 L 6.074219 0 L 26.042969 0 L 26.042969 -31.648438 Z M 50.335938 0 "/></g><g id="glyph-0-3"/><g id="glyph-0-4"><path d="M 5.839844 -81.75 L 5.839844 0 L 60.144531 0 L 60.144531 -19.269531 L 25.808594 -19.269531 L 25.808594 -81.75 Z M 5.839844 -81.75 "/></g><g id="glyph-0-5"><path d="M 43.796875 -81.75 L 5.957031 -81.75 L 5.957031 0 L 43.5625 0 C 60.730469 0 69.722656 -13.195312 69.722656 -26.394531 C 69.722656 -33.285156 66.21875 -40.410156 57.574219 -44.847656 C 62.949219 -48.582031 65.402344 -54.304688 65.402344 -59.910156 C 65.402344 -70.65625 56.757812 -81.75 43.796875 -81.75 Z M 40.757812 -52.203125 L 25.691406 -52.203125 L 25.691406 -63.648438 L 40.992188 -63.648438 C 44.144531 -63.648438 45.898438 -60.847656 45.898438 -58.042969 C 45.898438 -55.125 44.261719 -52.203125 40.757812 -52.203125 Z M 43.5625 -18.917969 L 25.691406 -18.917969 L 25.691406 -33.75 L 43.5625 -33.75 C 47.765625 -33.75 49.867188 -30.015625 49.867188 -26.277344 C 49.867188 -22.539062 47.765625 -18.917969 43.5625 -18.917969 Z M 43.5625 -18.917969 "/></g><g id="glyph-0-6"><path d="M 46.363281 -55.941406 L 66.453125 -55.941406 C 66.453125 -74.742188 50.683594 -82.917969 36.085938 -82.917969 C 18.6875 -82.917969 3.972656 -72.175781 4.90625 -54.1875 L 4.90625 -54.304688 C 6.421875 -35.503906 22.074219 -32.582031 35.269531 -31.300781 C 38.304688 -30.949219 47.648438 -30.714844 47.648438 -24.875 C 47.648438 -20.203125 42.394531 -18.335938 35.855469 -18.335938 C 31.300781 -18.335938 24.523438 -19.855469 24.523438 -27.910156 L 4.320312 -27.910156 C 4.320312 -7.125 22.421875 1.050781 35.738281 1.050781 C 51.269531 1.050781 67.851562 -8.757812 67.851562 -25.808594 C 67.851562 -27.5625 67.621094 -29.664062 67.269531 -31.53125 C 63.765625 -46.246094 49.167969 -49.285156 37.605469 -50.800781 C 34.917969 -51.035156 25.226562 -51.152344 25.226562 -57.226562 C 25.226562 -61.664062 29.546875 -64.347656 35.738281 -64.347656 C 41.925781 -64.347656 46.363281 -61.429688 46.363281 -55.941406 Z M 46.363281 -55.941406 "/></g></g><clipPath id="clip-0"><path d="M 22.5 53.007812 L 142.789062 53.007812 L 142.789062 157.121094 L 22.5 157.121094 Z M 22.5 53.007812 " clip-rule="nonzero"/></clipPath></defs><g fill="rgb(99.21875%, 98.039246%, 96.469116%)" fill-opacity="1"><use x="174.706956" y="152.436239" xmlns:xlink="http://www.w3.org/1999/xlink" xlink:href="#glyph-0-0" xlink:type="simple" xlink:actuate="onLoad" xlink:show="embed"/></g><g fill="rgb(99.21875%, 98.039246%, 96.469116%)" fill-opacity="1"><use x="254.107086" y="152.436239" xmlns:xlink="http://www.w3.org/1999/xlink" xlink:href="#glyph-0-1" xlink:type="simple" xlink:actuate="onLoad" xlink:show="embed"/></g><g fill="rgb(99.21875%, 98.039246%, 96.469116%)" fill-opacity="1"><use x="322.76475" y="152.436239" xmlns:xlink="http://www.w3.org/1999/xlink" xlink:href="#glyph-0-2" xlink:type="simple" xlink:actuate="onLoad" xlink:show="embed"/></g><g fill="rgb(99.21875%, 98.039246%, 96.469116%)" fill-opacity="1"><use x="397.260704" y="152.436239" xmlns:xlink="http://www.w3.org/1999/xlink" xlink:href="#glyph-0-3" xlink:type="simple" xlink:actuate="onLoad" xlink:show="embed"/></g><g fill="rgb(99.21875%, 98.039246%, 96.469116%)" fill-opacity="1"><use x="424.232948" y="152.436239" xmlns:xlink="http://www.w3.org/1999/xlink" xlink:href="#glyph-0-4" xlink:type="simple" xlink:actuate="onLoad" xlink:show="embed"/></g><g fill="rgb(99.21875%, 98.039246%, 96.469116%)" fill-opacity="1"><use x="486.234974" y="152.436239" xmlns:xlink="http://www.w3.org/1999/xlink" xlink:href="#glyph-0-0" xlink:type="simple" xlink:actuate="onLoad" xlink:show="embed"/></g><g fill="rgb(99.21875%, 98.039246%, 96.469116%)" fill-opacity="1"><use x="565.635112" y="152.436239" xmlns:xlink="http://www.w3.org/1999/xlink" xlink:href="#glyph-0-5" xlink:type="simple" xlink:actuate="onLoad" xlink:show="embed"/></g><g fill="rgb(99.21875%, 98.039246%, 96.469116%)" fill-opacity="1"><use x="637.562229" y="152.436239" xmlns:xlink="http://www.w3.org/1999/xlink" xlink:href="#glyph-0-6" xlink:type="simple" xlink:actuate="onLoad" xlink:show="embed"/></g><path fill="rgb(32.939148%, 62.348938%, 84.309387%)" d="M 22.835938 156.710938 L 88.828125 42.414062 L 154.820312 156.710938 Z M 22.835938 156.710938 " fill-opacity="1" fill-rule="nonzero"/><path fill="rgb(90.19928%, 16.859436%, 29.019165%)" d="M 31.21875 152.304688 L 72.699219 80.457031 L 114.183594 152.304688 Z M 31.21875 152.304688 " fill-opacity="1" fill-rule="nonzero"/><path fill="rgb(70.979309%, 88.238525%, 97.648621%)" d="M 31.21875 152.304688 L 60.9375 100.828125 L 90.660156 152.304688 Z M 31.21875 152.304688 " fill-opacity="1" fill-rule="nonzero"/><g clip-path="url(#clip-0)"><path fill="rgb(14.118958%, 20.779419%, 26.669312%)" d="M 82.644531 53.007812 L 22.570312 157.121094 L 142.71875 157.121094 Z M 82.644531 63.027344 L 134.046875 152.113281 L 31.242188 152.113281 Z M 82.644531 63.027344 " fill-opacity="1" fill-rule="nonzero"/></g></svg>
